!!!COM: Fux, Johann Joseph
!!!OMD: Gradus ad Parnassum Exercise
!!!YEC: CC0 1.0 Universal (Public Domain). Mark Gotham and FourScoreAndMore.org waive all rights to this document.
**kern	**kern
*part2	*part1
*staff2	*staff1
*I"2	*I"1
*I'Pno	*I'Pno
!!LO:PB:g=z
*clefF4	*clefGv2
*k[]	*k[]
!!LO:TX:omd:t=
*M2/2	*M2/2
=55	=55
!	!LO:TX:a:t=Fig. 14; Species&colon; 1; Modal final&colon; f; Cantus firmus&colon; Upper
1F	1F
=56	=56
1E	1G
=57	=57
1F	1A
=58	=58
1A	1F
=59	=59
1B-X	1D
=60	=60
1G	1E
=61	=61
1A	1F
=62	=62
1E	1c
=63	=63
1F	1A
=64	=64
1D	1F
=65	=65
1E	1G
=66	=66
1F	1F
==	==
*-	*-
!!!software: music21 v.9.7.1
!!!software: music21 v.9.7.1
!!!software: MuseScore 3.4.2
!!!RDF**kern: > = above
!!!RDF**kern: < = below
